X: 47
T: Belvedera
%R: minuet
B: "The Compleat Country Dancing-Master" printed by John Walsh, London ca. 1740
S: 6: CCDM2 http://imslp.org/wiki/The_Compleat_Country_Dancing-Master_(Various) V.2 (163)
Z: 2013 John Chambers <jc:trillian.mit.edu>
N: Repeat signs added to match the dance description.
N: The actual time signature is just "3".
M: 3/4
L: 1/8
K: A
% - - - - - - - - - - - - - - - - - - - - - - - - -
|:\
cd e2 c2 | d2 B2c2 | A2 B2 G2 | AGABAB |\
cd e2 c2 | c2B2 c2 | A2 B2 G2 | A6 :|
cBABcd | e2 (e3 d/e/) | f2 e2 d2 | e2 c2 a2 |\
e2 fe d2 | e2 c2 d2 | e2 fedc | B6 |
cd e2 c2 | d2 B2 c2 | A2 B2 G2 | AGABAB |\
cd (d3 c/d/) | e2 c2 a2 | c2 dcBc | A6 |]
% - - - - - - - - - - - - - - - - - - - - - - - - -
%%center Note The 1st strain is to be play'd twice and the last but once
% - - - - - - - - Dance description - - - - - - - -
%%begintext align
%% First Man lead his Wo. by the right Hand half round and back
%% again by the left Hand .| Cast off 1st into the 2d Cu. Place then
%% into the 3d. Cu. place :| Then lead thro both Cu. and cast off
%% then all three Cu. take Hands round till the 1st Cu. meet in the
%% Middle and turn Hands .|
%%endtext
%%sep 1 8 500

%%sep 1 1 500
%%sep 1 1 500
